!!!COM: Bach, Johann Sebastian
!!!CDT: 1685/3//-1750/7/28/
!!!OTL@@DE: O Gott, du frommer Gott
!!!OTL@EN:  O pious God
!!!AGN: 4-Part Chorale
!!!SCT: BH 315
!!!SCT: BWV 399
**harm	**root	**kern	**kern	**kern	**kern
!	!	!bass	!tenor	!alto	!soprno
*	*Iorgan	*Iorgan	*Iorgan	*Iorgan	*Iorgan
*	*	*clefF4	*clefF4	*clefG2	*clefG2
*M4/4	*M4/4	*M4/4	*M4/4	*M4/4	*M4/4
*met(c)	*met(c)	*met(c)	*met(c)	*met(c)	*met(c)
*MM56	*MM56	*MM56	*MM56	*MM56	*MM56
*k[f#]	*k[f#]	*k[f#]	*k[f#]	*k[f#]	*k[f#]
*>[A,A,B]	*>[A,A,B]	*>[A,A,B]	*>[A,A,B]	*>[A,A,B]	*>[A,A,B]
*>A	*>A	*>A	*>A	*>A	*>A
*G:	*G:	*G:	*G:	*G:	*G:
vi	4EE	[4E	8G	4g	4b
.	.	.	8A	.	.
=1	=1	=1	=1	=1	=1
iii7	4.BB	8E]	4.B	4f#	4b
.	.	4D	.	.	.
.	.	.	.	8g	4ee
vii7Dc	8FF#	8C	8A	8f#	.
Ib	8GG	8BB	8B	4g	4dd
IV	8CC	8C	8e	.	.
V7	4DD	4D	4d	4f#	16cc
.	.	.	.	.	16b
.	.	.	.	.	8cc
=2	=2	=2	=2	=2	=2
I;	2.GG;	2.GG;	2.d;	2.g;	2.b;
I	8GG	8GG	8d	4g	8b
ii7	8AA	8AA	8c	.	8cc
=3	=3	=3	=3	=3	=3
Ib	4GG	4BB	8B	8g	4dd
.	.	.	8A	8f#	.
IV	4CC	[4C	4G	8e	4g
.	.	.	.	16f#	.
.	.	.	.	16g	.
V7d	4DD	8C]	4d	4f#	4a
.	.	8BB	.	.	.
I	4GG	8AA	4d	[4g	4b
.	.	8GG	.	.	.
=4	=4	=4	=4	=4	=4
V7	2DD	2D	4.d	8g]	2a
.	.	.	.	8e	.
.	.	.	.	4f#	.
.	.	.	8c	.	.
I;	4GG;	4GG;	4B;	4d;	4g;
=:|!	=:|!	=:|!	=:|!	=:|!	=:|!
*>B	*>B	*>B	*>B	*>B	*>B
V7d/V	4AA	[4G	4c#	4e	4a
=5	=5	=5	=5	=5	=5
Vb	4DD	8G]	4d	4d	4a
.	.	8F#	.	.	.
iiib	4BB	8E	4d	4f#	4b
.	.	8D	.	.	.
IVb	4CC	4E	8c	4g	8cc
.	.	.	8B	.	8ee
vi	8EE	4F#	8A	4a	8dd
V7b	8DD	.	8d	.	8cc
!!linebreak: 2
=6	=6	=6	=6	=6	=6
I;	2.GG;	2.G;	2.d;	2.g;	2.b;
*D:	*D:	*D:	*D:	*D:	*D:
IV	4GG	4GG	4d	8g	4b
.	.	.	.	8f#	.
=7	=7	=7	=7	=7	=7
V7d	8AA	8G	8c#	8e	4a
Ib	8DD	8F#	8A	16d	.
.	.	.	.	16c#	.
IV	8GG	8B	8G	4d	8dd
I	8DD	8A	8F#	.	16ee
.	.	.	.	.	16ff#
iib	8EE	8G	8B	8g	4ee
ii	8EE	8E	8g	8b	.
Ic	8DD	4A	8f#	8a	8dd
V	8AA	.	8e	8g	8cc#
=8	=8	=8	=8	=8	=8
I;	2.DD;	2.D;	2.d;	2.f#;	2.dd;
*C:	*C:	*C:	*C:	*C:	*C:
V/V	4DD	8d	4f#	4a	4dd
.	.	8cn	.	.	.
=9	=9	=9	=9	=9	=9
Vb	4GG	8B	4g	4g	4dd
.	.	8A	.	.	.
V7d	4GG	8G	4d	4g	4b
.	.	8Fn	.	.	.
Ib	4CC	8E	4e	4g	4cc
.	.	8D	.	.	.
V7b	4GG	8C	4fn	4g	4dd
.	.	8BB	.	.	.
=10	=10	=10	=10	=10	=10
I;	2.CC;	2.C;	2.e;	2.g;	2.ee;
*G:	*G:	*G:	*G:	*G:	*G:
V	4DD	4D	4d	4f#	4a
=11	=11	=11	=11	=11	=11
I	4GG	8GG	4d	4g	8b
.	.	8AA	.	.	16cc
.	.	.	.	.	16dd
IV7	4CC	8BB	8d	4g	8cc
.	.	8C	8e	.	8b
Ic	4GG	4D	4d	4g	4b
V7	4DD	4D	4c	4f#	8a
.	.	.	.	.	8g
=12	=12	=12	=12	=12	=12
I;	2.GG;	2.GG;	2.B;	2.d;	2.g;
==|!	==|!	==|!	==|!	==|!	==|!
*-	*-	*-	*-	*-	*-
!!chor2scor: -l 2 -o %b.pmx
!!!YEC: Copyright 2003 by Craig Stuart Sapp
!!!license: GNU General Public License (http://www.gnu.org/copyleft/gpl.html)
!!!SMA: 371 Bach Chorales, edited by Ludwig Erk, C.F. Peters
!!!PDT: 1850, 1865
!!!ONB: Harmony and Root analysis done manually by Craig Sapp
